svg/fluentui-system-icons/ic_fluent_dual_screen_status_bar_24_regular.svg

<svg width="24" height="24" viewBox="0 0 24 24" fill="none" xmlns="http://www.w3.org/2000/svg">
<path d="M12.7476 4.00195L12.747 4.00395L20.2451 4.00439C21.2116 4.00439 21.9951 4.78789 21.9951 5.75439V18.2495C21.9951 19.216 21.2116 19.9995 20.2451 19.9995H11.2476L11.247 19.997L3.75 19.9971C2.7835 19.9971 2 19.2136 2 18.2471V5.75195C2 4.78545 2.7835 4.00195 3.75 4.00195H12.7476ZM20.2451 5.50439H12.7476V18.4995H20.2451C20.3832 18.4995 20.4951 18.3876 20.4951 18.2495V5.75439C20.4951 5.61632 20.3832 5.50439 20.2451 5.50439ZM11.2476 5.50195H3.75C3.61193 5.50195 3.5 5.61388 3.5 5.75195V18.2471C3.5 18.3851 3.61193 18.4971 3.75 18.4971H11.2476V5.50195ZM18.7499 6.50073C19.1641 6.50073 19.4999 6.83652 19.4999 7.25073C19.4999 7.66495 19.1641 8.00073 18.7499 8.00073H14.2483C13.8341 8.00073 13.4983 7.66495 13.4983 7.25073C13.4983 6.83652 13.8341 6.50073 14.2483 6.50073H18.7499Z" fill="#212121"/>
</svg>

<svg xmlns="http://www.w3.org/2000/svg" width="24" height="24"><path d="m12.748 4.002-.001.002h7.498c.967 0 1.75.784 1.75 1.75V18.25a1.75 1.75 0 0 1-1.75 1.75h-8.997l-.001-.002H3.75A1.75 1.75 0 0 1 2 18.247V5.752c0-.967.784-1.75 1.75-1.75h8.998Zm7.497 1.502h-7.497V18.5h7.497a.25.25 0 0 0 .25-.25V5.755a.25.25 0 0 0-.25-.25Zm-8.997-.002H3.75a.25.25 0 0 0-.25.25v12.495c0 .138.112.25.25.25h7.498V5.502Zm7.502.999a.75.75 0 0 1 0 1.5h-4.502a.75.75 0 0 1 0-1.5h4.502Z"/></svg>
